X:1
T:Title
%%score { 1 | ( 2 3 ) }
L:1/8
M:6/8
K:Bb
V:1 treble nm="Grand Piano"
V:2 bass 
V:3 bass 
V:1
 z3 z2[Q:1/4=84] D | D2 D D2 D/D/ | D2 D D2 [DF]/[DF]/ | Fd[Dc] BA[DG] | [DF]3 D2 E | %5
 E2 E E2 E/E/ | E2 E E2 F/F/ | Fed cBA |[M:5/8] c3 [DB]2 |[M:1/8] [DB]/[DB]/ | %10
[M:3/4] c2 B A2 F/F/ | [Fd]2 [Ec] [DB]2 [FB]/[FB]/ | G2 B F2 [Fd] | d3 c2 c/c/ | %14
[M:7/8] def [Af]3 A/A/ | Bcd [^Fd]3 [Fd]/[Fd]/ |[M:3/4] dc B B2 A |[M:5/8] c3 [DB]2 |] %18
V:2
 z3 z2 [B,,F,B,] | [B,,F,B,]2 [B,,F,B,] [B,,F,B,]2 [B,,F,B,]/[B,,F,B,]/ | %2
 [B,,F,B,]2 [B,,F,B,] [B,,F,B,]2 [B,,F,B,]/[B,,F,B,]/ | [B,,F,B,]2 [B,,F,B,] [B,,F,C]2 [B,,F,B,] | %4
 [B,,F,B,]3 [B,,F,B,]2 [F,A,C] | [F,A,C]2 [F,A,C] [F,A,C]2 [F,A,C]/[F,A,C]/ | %6
 [F,A,C]2 [F,A,C] [F,A,C]2 [F,A,CE]/[F,A,CE]/ | [F,A,CE]2 [F,A,CE] [F,A,CE]2 [F,A,CE] | %8
[M:5/8] [F,A,CE]3 [B,,B,]2 |[M:1/8] [B,,B,]/[B,,B,]/ | %10
[M:3/4] [F,A,E]2 [F,B,D] [F,CE]2 [F,A,]/[F,A,]/ | [B,,B,]2 [B,,F,] [B,,F,]2 [D,B,]/[D,B,]/ | %12
 [E,B,E]2 [G,B,E] [B,D]2 [B,,B,] | [F,B,F]3 [F,A,F]2 [F,A,F]/[F,A,F]/ | %14
[M:7/8] [B,F]2 z[K:bass] z z z2 | [G,B,D]2 [G,B,D] [D,A,]3 [D,A,]/[D,A,]/ | %16
[M:3/4][K:treble] [G,G]2 z2 z2[K:bass] |[M:5/8] [F,A,E]3 [B,,B,]2 |] %18
V:3
 x6 | x6 | x6 | x6 | x6 | x6 | x6 | x6 |[M:5/8] x5 |[M:1/8] x |[M:3/4] x6 | x6 | x6 | x6 | %14
[M:7/8] z C[B,DF][K:bass] [F,C]3 [F,CF]/[F,CE]/ | x7 | %16
[M:3/4][K:treble] B,C [G,D] [F,DF]2[K:bass] [F,CF] |[M:5/8] x5 |] %18

